Flat-Remix-Dark/apps/scalable/timeshift.svg

<svg xmlns="http://www.w3.org/2000/svg" width="384pt" height="384pt" version="1.1" viewBox="0 0 384 384"> <defs> <linearGradient id="linear0" x1="1" x2="47" y1="0" y2="0" gradientTransform="matrix(0,-7.727246,7.727246,0,7.272743,376.727225)" gradientUnits="userSpaceOnUse"> <stop offset="0" style="stop-color:rgb(99.215%,28.627%,28.627%)"/> <stop offset="1" style="stop-color:rgb(99.215%,28.627%,28.627%)"/> </linearGradient> <clipPath id="clip1"> <path d="M 76 75 L 309 75 L 309 308 L 76 308 Z M 76 75"/> </clipPath> <clipPath id="clip2"> <path d="M 370.453125 191.273438 C 370.453125 289.46875 290.832031 369 192.726562 369 C 94.621094 369 15 289.46875 15 191.273438 C 15 93.078125 94.621094 13.546875 192.726562 13.546875 C 290.832031 13.546875 370.453125 93.078125 370.453125 191.273438 Z M 370.453125 191.273438"/> </clipPath> <clipPath id="clip3"> <path d="M 76 160 L 131 160 L 131 230 L 76 230 Z M 76 160"/> </clipPath> <clipPath id="clip4"> <path d="M 370.453125 191.273438 C 370.453125 289.46875 290.832031 369 192.726562 369 C 94.621094 369 15 289.46875 15 191.273438 C 15 93.078125 94.621094 13.546875 192.726562 13.546875 C 290.832031 13.546875 370.453125 93.078125 370.453125 191.273438 Z M 370.453125 191.273438"/> </clipPath> </defs> <g> <path style="fill:url(#linear0)" d="M 192.726562 13.546875 C 290.886719 13.546875 370.453125 93.113281 370.453125 191.273438 C 370.453125 289.433594 290.886719 369 192.726562 369 C 94.566406 369 15 289.433594 15 191.273438 C 15 93.113281 94.566406 13.546875 192.726562 13.546875 Z M 192.726562 13.546875"/> <g clip-path="url(#clip1)"> <g clip-path="url(#clip2)"> <path style="fill:rgb(6.666%,17.647%,36.078%);fill-opacity:0.501961" d="M 192.632812 75.363281 C 128.792969 75.363281 76.816406 127.128906 76.816406 191.148438 C 76.816406 255.199219 128.800781 307.136719 192.632812 307.136719 C 256.476562 307.136719 308.621094 255.183594 308.621094 191.148438 C 308.621094 127.097656 256.460938 75.363281 192.632812 75.363281 M 192.632812 90.820312 C 248.355469 90.820312 293.242188 135.707031 293.242188 191.148438 C 293.242188 246.601562 248.324219 291.757812 192.632812 291.757812 C 136.914062 291.757812 92.210938 246.632812 92.210938 191.148438 C 92.210938 135.699219 136.882812 90.820312 192.632812 90.820312 M 192.632812 90.820312"/> <path style="fill:rgb(6.666%,17.647%,36.078%)" d="M 192.632812 75.363281 C 128.792969 75.363281 76.816406 127.128906 76.816406 191.148438 L 92.210938 191.148438 C 92.210938 135.699219 136.882812 90.820312 192.632812 90.820312 C 248.355469 90.820312 293.242188 135.707031 293.242188 191.148438 L 293.242188 192.207031 C 292.640625 247.265625 247.96875 291.726562 192.632812 291.726562 L 192.632812 307.152344 C 256.476562 307.152344 308.621094 255.199219 308.621094 191.164062 C 308.621094 127.113281 256.460938 75.433594 192.632812 75.433594 M 192.632812 75.433594"/> </g> </g> <g clip-path="url(#clip3)"> <g clip-path="url(#clip4)"> <path style="fill:rgb(6.666%,17.647%,36.078%)" d="M 81.167969 160.363281 C 78.449219 170.199219 76.816406 180.585938 76.816406 191.273438 C 76.816406 204.617188 79.175781 217.507812 83.339844 229.429688 L 84.546875 229.917969 L 130.910156 160.371094 M 81.160156 160.371094"/> </g> </g> </g> </svg>

<svg width="512" height="512" version="1.1" viewBox="0 0 384 384" xmlns="http://www.w3.org/2000/svg"><defs><linearGradient id="linear0" x1="1" x2="47" gradientTransform="matrix(0 -7.7272 7.7272 0 7.2727 376.73)" gradientUnits="userSpaceOnUse"><stop stop-color="#fc4848" offset="0"/><stop stop-color="#fc4848" offset="1"/></linearGradient><clipPath id="clip1"><path d="m76 75h233v233h-233z"/></clipPath><clipPath id="clip2"><path d="m370.45 191.27c0 98.195-79.621 177.73-177.73 177.73-98.105 0-177.73-79.531-177.73-177.73 0-98.195 79.621-177.73 177.73-177.73 98.105 0 177.73 79.531 177.73 177.73z"/></clipPath><clipPath id="clip3"><path d="m76 160h55v70h-55z"/></clipPath><clipPath id="clip4"><path d="m370.45 191.27c0 98.195-79.621 177.73-177.73 177.73-98.105 0-177.73-79.531-177.73-177.73 0-98.195 79.621-177.73 177.73-177.73 98.105 0 177.73 79.531 177.73 177.73z"/></clipPath></defs><g transform="matrix(.94949 0 0 .94949 9.0076 10.387)"><path d="m192.73 13.547c98.16 0 177.73 79.566 177.73 177.73 0 98.16-79.566 177.73-177.73 177.73-98.16 0-177.73-79.566-177.73-177.73 0-98.16 79.566-177.73 177.73-177.73z" fill="url(#linear0)"/><g clip-path="url(#clip1)"><g clip-path="url(#clip2)" fill="#0f2b5c"><path d="m192.63 75.363c-63.84 0-115.82 51.766-115.82 115.79 0 64.051 51.984 115.99 115.82 115.99 63.844 0 115.99-51.953 115.99-115.99 0-64.051-52.16-115.79-115.99-115.79m0 15.457c55.723 0 100.61 44.887 100.61 100.33 0 55.453-44.918 100.61-100.61 100.61-55.719 0-100.42-45.125-100.42-100.61 0-55.449 44.672-100.33 100.42-100.33" fill-opacity=".50196"/><path d="m192.63 75.363c-63.84 0-115.82 51.766-115.82 115.79h15.395c0-55.449 44.672-100.33 100.42-100.33 55.723 0 100.61 44.887 100.61 100.33v1.0586c-0.60157 55.059-45.273 99.52-100.61 99.52v15.426c63.844 0 115.99-51.953 115.99-115.99 0-64.051-52.16-115.73-115.99-115.73"/></g></g><g clip-path="url(#clip3)"><g clip-path="url(#clip4)"><path d="m81.168 160.36c-2.7188 9.8359-4.3516 20.223-4.3516 30.91 0 13.344 2.3594 26.234 6.5234 38.156l1.207 0.48828 46.363-69.547m-49.75 0" fill="#0f2b5c"/></g></g></g><path transform="scale(.75)" d="m256 31c-124.27 0-225 100.73-225 225 0 1.672 0.028172 3.3367 0.064453 5 2.6603-121.96 102.34-220 224.94-220 122.6 0 222.28 98.041 224.94 220 0.03628-1.6633 0.06445-3.328 0.06445-5 0-124.27-100.73-225-225-225z" fill="#fff" opacity=".3" stroke-width="1.266"/><path transform="scale(.75)" d="m31.064 251c-0.036281 1.6633-0.064453 3.328-0.064453 5 0 124.27 100.73 225 225 225 124.27 0 225-100.73 225-225 0-1.672-0.02817-3.3367-0.06445-5-2.6603 121.96-102.34 220-224.94 220-122.6 0-222.28-98.041-224.94-220z" opacity=".3" stroke-width="1.266"/></svg>
